<?xml version="1.0" encoding="UTF-8"?>
<map version="1.10" tiledversion="1.11.0" orientation="orthogonal" renderorder="right-down" width="40" height="42" tilewidth="4" tileheight="4" infinite="0" nextlayerid="2" nextobjectid="1">
 <tileset firstgid="1" name="tiles" tilewidth="4" tileheight="4" tilecount="120" columns="15">
  <image source="tiles.png" width="60" height="32"/>
 </tileset>
 <layer id="1" name="Capa de Patrones 1" width="40" height="42">
  <data encoding="csv">
58,57,57,57,57,57,57,57,57,57,57,57,57,57,57,57,57,57,57,57,57,57,57,57,57,57,57,57,57,58,109,110,110,110,111,77,78,77,78,58,
58,68,69,57,57,57,57,57,57,57,57,57,57,57,57,57,57,57,57,57,57,57,57,57,57,57,57,57,57,58,15,15,31,15,15,77,65,65,77,58,
58,72,73,8,8,8,63,64,8,8,8,8,8,8,8,8,8,8,8,8,8,19,19,19,19,8,8,8,8,58,15,15,15,15,15,77,78,77,78,58,
58,8,8,9,63,64,61,62,9,9,9,9,9,9,9,9,9,9,9,9,9,19,19,19,19,10,10,10,8,8,8,8,8,8,8,8,8,8,8,58,
58,8,8,9,61,62,61,62,8,10,10,9,9,9,9,9,9,9,9,9,9,19,19,19,19,9,9,9,8,8,8,8,8,9,9,9,9,9,14,58,
58,8,9,9,57,57,57,57,8,10,9,8,8,8,8,8,8,9,9,8,8,8,8,8,8,8,9,9,10,8,8,8,8,8,8,8,9,9,9,58,
58,8,10,9,57,57,57,57,8,9,9,8,8,8,8,8,8,8,8,8,8,8,8,8,8,8,8,10,10,8,8,8,8,8,8,8,8,9,9,58,
58,8,10,9,9,8,8,8,8,9,9,8,8,8,8,8,8,8,9,9,9,8,8,8,8,8,8,9,9,9,8,8,8,8,8,8,8,9,9,58,
58,8,10,10,9,9,9,9,9,10,9,9,9,8,8,9,9,9,9,9,9,9,9,8,8,8,8,9,9,9,9,10,10,10,8,8,8,9,9,58,
58,8,10,9,9,9,9,9,9,9,9,9,9,9,10,10,10,10,9,9,8,8,8,8,8,8,8,8,8,9,9,9,9,10,9,8,8,9,9,58,
58,8,10,9,8,8,8,8,8,8,8,8,8,8,8,8,8,9,9,9,8,8,8,8,8,8,8,8,8,8,8,8,9,10,9,8,8,9,9,58,
58,8,10,9,8,8,8,8,8,8,8,8,8,8,8,8,8,9,9,9,8,8,8,8,8,8,8,8,8,8,8,8,8,10,9,8,8,9,9,58,
58,8,9,9,9,8,8,8,8,8,8,8,8,9,10,9,9,9,9,9,9,8,8,8,8,8,8,8,8,8,8,8,8,10,9,8,9,10,10,58,
58,8,9,10,9,9,9,9,9,9,9,8,8,9,10,10,9,9,9,9,9,9,9,9,9,10,10,10,9,9,9,9,9,10,9,9,9,10,9,58,
58,8,9,9,10,9,9,10,10,10,9,8,8,9,10,9,9,9,9,9,9,9,9,9,9,9,9,10,10,10,9,9,9,9,9,9,10,9,14,58,
58,8,8,8,8,8,8,8,8,9,9,8,8,9,10,8,8,8,8,8,8,8,8,8,8,8,8,8,9,10,9,8,9,9,9,8,8,8,8,58,
58,8,8,8,8,8,8,8,8,9,10,8,8,9,8,8,8,8,8,8,8,8,8,8,8,8,8,8,8,9,9,8,8,9,8,8,8,8,8,58,
58,19,19,19,8,8,8,8,8,9,10,9,9,9,8,8,8,8,8,8,8,8,8,8,8,8,8,8,8,9,9,8,8,9,9,9,8,8,8,58,
58,19,19,19,8,8,8,8,8,8,10,10,9,9,9,8,8,8,8,8,8,8,8,8,8,8,8,8,8,9,9,8,8,9,9,10,10,9,14,58,
58,19,19,19,8,8,8,9,9,9,9,9,9,9,9,8,8,8,8,8,8,8,8,8,8,8,8,8,8,9,9,8,8,9,9,9,10,10,9,58,
58,19,19,19,9,9,9,9,9,9,9,8,8,8,8,8,8,8,8,8,8,8,8,8,8,8,8,8,8,9,9,8,8,9,9,8,9,10,10,58,
58,8,9,9,9,9,9,9,9,9,9,8,8,8,8,8,8,8,8,8,8,8,8,8,8,8,8,8,8,8,10,8,8,9,9,8,8,9,10,58,
58,8,8,8,9,9,8,9,9,9,9,9,8,8,8,8,8,8,8,8,10,10,8,8,8,8,8,8,8,9,10,10,8,10,9,8,8,9,9,58,
58,8,8,8,8,9,9,9,9,9,9,9,9,9,9,8,8,8,9,9,10,10,9,8,8,8,8,8,8,9,9,10,10,10,14,8,8,9,10,58,
58,8,8,8,8,8,9,9,9,9,9,9,9,9,9,8,8,8,8,9,10,9,9,8,8,8,8,8,8,9,9,9,9,14,9,8,8,9,9,58,
58,8,8,8,8,8,8,8,8,8,8,8,9,9,9,8,8,8,8,8,10,9,9,8,8,8,8,8,8,9,9,8,8,8,8,8,8,9,9,58,
58,8,8,8,8,8,8,8,8,8,8,8,8,10,9,8,8,8,8,8,10,9,9,8,8,8,8,8,8,9,9,8,8,8,8,8,8,9,9,58,
58,8,8,8,8,8,8,8,8,8,8,8,8,9,9,9,8,8,8,8,10,10,9,8,8,8,8,8,8,9,9,9,8,8,8,8,8,9,9,58,
58,8,14,9,10,10,10,9,9,9,9,9,9,9,10,10,10,9,10,10,10,9,9,9,9,9,9,9,9,9,9,9,9,9,9,9,9,14,9,58,
58,8,10,10,10,9,9,9,9,9,9,10,10,10,10,9,9,9,9,9,9,9,9,9,9,9,9,9,9,9,9,9,10,10,10,10,10,10,9,58,
58,8,10,9,8,8,8,8,8,8,8,8,8,8,8,8,8,8,8,8,8,8,8,8,8,8,8,8,8,8,8,8,8,9,10,8,9,9,9,58,
58,8,9,9,8,8,8,8,8,8,8,8,8,8,8,8,8,8,8,8,8,8,8,8,8,8,8,8,8,8,8,8,8,9,10,8,8,9,9,58,
58,8,9,9,8,8,8,8,8,8,8,8,8,9,10,9,8,8,8,8,8,8,8,8,8,8,8,8,8,8,8,8,8,9,10,8,8,9,9,58,
58,8,9,9,8,8,9,9,9,9,9,9,9,9,10,10,10,9,9,9,9,9,9,9,9,9,9,9,9,9,9,9,9,10,10,8,8,9,9,58,
58,8,9,9,8,8,9,9,9,9,9,9,9,9,9,9,9,9,9,9,9,9,9,9,14,9,9,9,9,9,9,9,10,10,14,8,8,9,9,58,
58,8,10,9,8,8,9,8,8,8,8,8,8,8,8,8,8,8,8,8,8,8,8,8,8,8,8,8,8,8,8,8,8,8,8,8,8,9,9,58,
58,8,10,9,8,8,8,8,8,8,8,8,8,8,8,8,8,8,8,8,8,8,8,8,8,8,8,8,9,8,8,8,8,8,8,8,8,9,9,58,
58,8,10,10,9,9,9,9,9,8,8,8,8,8,8,8,8,8,8,8,8,8,8,8,8,8,8,8,9,8,8,8,8,8,8,8,8,10,14,58,
58,8,9,10,10,9,9,9,9,9,9,14,8,8,8,8,8,8,9,9,9,9,9,9,9,8,8,8,8,8,8,8,8,8,9,9,9,10,9,58,
58,8,14,9,10,10,9,9,9,14,9,9,8,8,8,8,8,8,8,8,8,8,8,8,8,8,8,8,8,8,8,8,8,8,9,10,10,14,9,58,
57,57,57,57,57,57,57,57,57,57,57,57,57,57,57,57,57,57,11,11,11,11,11,57,57,57,57,57,57,57,57,57,57,57,57,57,57,57,57,57,
57,57,57,57,57,57,57,57,57,57,57,57,57,57,57,57,57,57,65,65,65,65,65,57,57,57,57,57,57,57,57,57,57,57,57,57,57,57,57,57
</data>
 </layer>
</map>
